!!!COM: Palestrina, Giovanni Perluigi da
!!!OPR: O virgo simul et mater
!!!OTL: Agnus
**kern	**kern	**kern	**kern	**kern
*Ibass	*Itenor	*Icalto	*Icalto	*Icant
!Bassus	!Tenor	!Altus 2	!Altus 1	!Cantus
*clefF4	*clefGv2	*clefG2	*clefG2	*clefG2
*k[b-]	*k[b-]	*k[b-]	*k[b-]	*k[b-]
*G:dor	*G:dor	*G:dor	*G:dor	*G:dor
*M4/2	*M4/2	*M4/2	*M4/2	*M4/2
=1	=1	=1	=1	=1
0r	1r	1r	1r	0g
.	[1G	[1b-	[1g	.
=2	=2	=2	=2	=2
0r	1G]	1b-]	1g]	1.dd
.	1d	2.a	2.f	.
.	.	.	.	2ff
.	.	4b-	4g	.
=3	=3	=3	=3	=3
0r	2.A	0cc	1a	2ee
.	.	.	.	2cc
.	4B-	.	.	.
.	1c	.	2g	1ee
.	.	.	[2a	.
=4	=4	=4	=4	=4
0D	1.d	1b-	2a]	1dd
.	.	.	1g	.
.	.	1a	.	[1dd
.	2d	.	2f#	.
=5	=5	=5	=5	=5
1.G	2B-	0d	1g	2dd]
.	4G	.	.	2b-
.	4A	.	.	.
.	4B-	.	1r	2g
.	4c	.	.	.
2B-	4d	.	.	[2f
.	4e	.	.	.
=6	=6	=6	=6	=6
2A	1f	1.a	2r	4f]
.	.	.	.	4g
2F	.	.	2.c	4a
.	.	.	.	4b-
1A	2e	.	.	2cc
.	.	.	4d	.
.	2c	2cc	4e	2a
.	.	.	4f	.
=7	=7	=7	=7	=7
0G	[0d	2b-	2g	2.b-
.	.	2g	2d	.
.	.	.	.	4cc
.	.	1b-	[1g	1dd
=8	=8	=8	=8	=8
0D	1d]	0a	2g]	2r
.	.	.	2f	2dd
.	2r	.	2r	1dd
.	2d	.	2f	.
=9	=9	=9	=9	=9
0r	1d	2r	1f	2a
.	.	2a	.	2dd
.	1A	1a	1e	2dd
.	.	.	.	2cc
=10	=10	=10	=10	=10
0r	2r	1d	1f	2b-
.	2d	.	.	4a
.	.	.	.	4g
.	2d	2r	2f	4a
.	.	.	.	4f
.	2c	2g	2e	4g
.	.	.	.	4a
=11	=11	=11	=11	=11
1r	2B-	2g	2d	2b-
.	2A	2f	2c	2cc
2r	2.G	2.b-	1g	[1dd
2d	.	.	.	.
.	4A	4a	.	.
=12	=12	=12	=12	=12
1d	4B-	2g	1r	1dd]
.	4c	.	.	.
.	1d	2f	.	.
1A	.	1e	1a	1r
.	2c#	.	.	.
=13	=13	=13	=13	=13
2r	2d	1f	1a	2r
2d	2d	.	.	2a
2d	2f	2r	2d	1a
2c	2e	2e	2a	.
=14	=14	=14	=14	=14
1B-	0r	2f	2a	2d
.	.	2g	2g	2dd
1A	.	1a	2f	2dd
.	.	.	2e	2cc
=15	=15	=15	=15	=15
1D	2r	1f	2d	2b-
.	2d	.	2A	2a
2G	2d	2g	2B-	2.g
2C	2c	2e	2c	.
.	.	.	.	4a
=16	=16	=16	=16	=16
1G	2.B-	2d	1d	4b-
.	.	.	.	4cc
.	.	4G	.	2.dd
.	4A	4A	.	.
2G	4G	4B-	2g	.
.	4A	4c	.	4cc
2G	4B-	[2d	2g	2b-
.	4c	.	.	.
=17	=17	=17	=17	=17
2.D	1d	4d]	1f	2a
.	.	4e	.	.
.	.	2.f	.	1b-
4E	.	.	.	.
1F	1c	.	1f	.
.	.	4e-	.	.
.	.	2c	.	2a
=18	=18	=18	=18	=18
1B-	2B-	1d	2r	2b-
.	1d	.	1f	1b-
1r	.	1r	.	.
.	2e	.	2g	2cc
=19	=19	=19	=19	=19
1r	2f	0r	2a	2dd
.	2d	.	2f	2b-
2r	2g	.	2.b-	2ee-
[2B-	[2f	.	.	[2dd
.	.	.	4a	.
=20	=20	=20	=20	=20
2B-]	2f]	1r	1g	2dd]
2c	2e	.	.	4cc
.	.	.	.	4b-
2d	1f	2r	2f	2a
2B-	.	2f	[2b-	[2dd
=21	=21	=21	=21	=21
1e-	0r	1g	2b-]	2dd]
.	.	.	4a	2cc
.	.	.	4g	.
[1d	.	2a	4f	[1dd
.	.	.	4g	.
.	.	2f	[2a	.
=22	=22	=22	=22	=22
0d]	0r	1b-	2a]	0dd]
.	.	.	1g	.
.	.	1a	.	.
.	.	.	2f#	.
=23	=23	=23	=23	=23
0r	1.G	2.b-	1g	2r
.	.	.	.	1b-
.	.	4a	.	.
.	.	2g	2r	.
.	2A	4f	[2f	2cc
.	.	4e-	.	.
=24	=24	=24	=24	=24
0r	2B-	1d	2f]	2dd
.	2G	.	2g	2b-
.	1d	1r	2a	2.ff
.	.	.	2f	.
.	.	.	.	4ee
=25	=25	=25	=25	=25
0r	2.B-	2r	1b-	0dd
.	.	1f	.	.
.	4c	.	.	.
.	2d	.	2a	.
.	2B-	2g	[2g	.
=26	=26	=26	=26	=26
0r	2A	2a	4g]	2cc
.	.	.	4f	.
.	4B-	2f	1f	1dd
.	4A	.	.	.
.	4G	1b-	.	.
.	4F	.	.	.
.	2G	.	2e	2b-
=27	=27	=27	=27	=27
2r	2F	1.a	1f	1dd
1F	2.f	.	.	.
.	.	.	1r	2cc
.	4e	.	.	.
2G	2d	4g	.	[2b-
.	.	4f	.	.
=28	=28	=28	=28	=28
2A	1c	2e	2r	4b-]
.	.	.	.	4a
2F	.	2.f	2c	2.a
1B-	1r	.	1d	.
.	.	4e	.	4g
.	.	[2d	.	4g
.	.	.	.	8f
.	.	.	.	8g
=29	=29	=29	=29	=29
1A	1r	2d]	2e	1.a
.	.	2c#	2e	.
1r	2r	1d	4f	.
.	.	.	4e	.
.	[2B-	.	4d	2f
.	.	.	4c	.
=30	=30	=30	=30	=30
0r	2B-]	1r	4d	2f
.	.	.	8c	.
.	.	.	8B-	.
.	2c	.	2A	2r
.	2d	1f	2.B-	[1b-
.	2B-	.	.	.
.	.	.	4A	.
=31	=31	=31	=31	=31
1r	1e-	1g	2G	2b-]
.	.	.	2.g	2cc
2r	1d	2a	.	[1dd
.	.	.	4f	.
[2BB-	.	2f	[2f	.
=32	=32	=32	=32	=32
2BB-]	1r	2b-	2f]	2dd]
2C	.	4a	2e	2cc
.	.	4g	.	.
2D	1F	4f	1f	2a
.	.	4e	.	.
2BB-	.	4d	.	[2b-
.	.	4c	.	.
=33	=33	=33	=33	=33
1E-	1G	2B-	1r	2b-]
.	.	2c	.	4a
.	.	.	.	4g
[1D	2A	[1d	2.a	4f
.	.	.	.	4g
.	2F	.	.	[2a
.	.	.	4a	.
=34	=34	=34	=34	=34
0D]	1B-	1d]	2f	2a]
.	.	.	2g	1g
.	1A	2r	1a	.
.	.	[2d	.	2f#
=35	=35	=35	=35	=35
2.G	[0G	2d]	2b-	[0g
.	.	2d	1B-	.
4G	.	.	.	.
2E-	.	2.e-	.	.
2C	.	.	2c	.
.	.	8d	.	.
.	.	8c	.	.
=36	=36	=36	=36	=36
1G	1G_	2B-	2d	1g_
.	.	2d	2B-	.
1C	1G_	1c	1e-	1g_
=37	=37	=37	=37	=37
0G	0G]	0B	0d	0g]
==	==	==	==	==
*-	*-	*-	*-	*-
!!!CDT: 1525/^1526/-1594/2/2
!!!OCY: Italia
!!!AGN: Mass (Parody)
!!!AST: renaissance, vocal
!!!ASW: Motet 1572 (Palestrina)
!!!PWK: Masses, Book 10
!!!RNB: Cadence finals: D
!!!YOR: Le Opere Complete, v. 27, p. 89
!!!YOO: Rome, Italy: Fratelli Scalera
!!!END: 1992//
!!!EED: John Miller
!!!YEC: Copyright 2000, John Miller
!!!YEN: United States of America
!!!YEM: Rights to all derivative electronic formats reserved.
!!!YEM: Refer to licensing agreement for further details.
!!!YEM: This file must be accompanied by the licensing agreement.
!!!YEM: A copy of the licensing agreement may be found at http://www.music-cog.ohio-state.edu/HumdrumDatabases/Palestrina/license.txt
!!!EMD: converted to Humdrum by Bret Aarden
